;FLAVOR:Marlin
;TIME:790
;Filament used: 0.258099m
;Layer height: 0.2
;MINX:100.3
;MINY:100.3
;MINZ:0.2
;MAXX:119.7
;MAXY:119.7
;MAXZ:20
;Generated with Cura_SteamEngine main
M140 S60
M105
M190 S60
M104 S230
M105
M109 S230
M82 ;absolute extrusion mode
G28 ;Home

G92 E0 ;Reset Extruder
G1 Z2.0 F3000 ;Move Z Axis up
G1 X10.1 Y20 Z0.28 F5000.0 ;Move to start position
G1 X10.1 Y200.0 Z0.28 F1500.0 E15 ;Draw the first line
G1 X10.4 Y200.0 Z0.28 F5000.0 ;Move to side a little
G1 X10.4 Y20 Z0.28 F1500.0 E30 ;Draw the second line
G92 E0 ;Reset Extruder
G1 Z2.0 F3000 ;Move Z Axis up
G92 E0
G92 E0
G1 F3000 E-1
;LAYER_COUNT:100
;LAYER:0
M107
;MESH:20mmTestCube_repaired.stl
G0 F6000 X100.3 Y100.3 Z0.2
;TYPE:WALL-OUTER
G1 F3000 E0
G1 F600 X100.3 Y119.7 E0.64525
G1 X119.7 Y119.7 E1.29049
G1 X119.7 Y110 E1.61312
G1 X119.7 Y100.3 E1.93574
G1 X100.3 Y100.3 E2.58099
;TIME_ELAPSED:12.069440
;LAYER:1
M106 S42.5
;MESH:20mmTestCube_repaired.stl
G0 F7500 X100.3 Y100.3 Z0.4
;TYPE:WALL-OUTER
G1 F600 X100.3 Y119.7 E3.22623
G1 X119.7 Y119.7 E3.87148
G1 X119.7 Y110 E4.1941
G1 X119.7 Y100.3 E4.51673
G1 X100.3 Y100.3 E5.16197
;TIME_ELAPSED:19.937370
;LAYER:2
M106 S85
;MESH:20mmTestCube_repaired.stl
G0 F9000 X100.3 Y100.3 Z0.6
;TYPE:WALL-OUTER
G1 F600 X100.3 Y119.7 E5.80722
G1 X119.7 Y119.7 E6.45247
G1 X119.7 Y110 E6.77509
G1 X119.7 Y100.3 E7.09771
G1 X100.3 Y100.3 E7.74296
;TIME_ELAPSED:27.805299
;LAYER:3
M106 S127.5
;MESH:20mmTestCube_repaired.stl
G0 F9000 X100.3 Y100.3 Z0.8
;TYPE:WALL-OUTER
G1 F600 X100.3 Y119.7 E8.38821
G1 X119.7 Y119.7 E9.03345
G1 X119.7 Y110 E9.35608
G1 X119.7 Y100.3 E9.6787
G1 X100.3 Y100.3 E10.32395
;TIME_ELAPSED:35.673228
;LAYER:4
;MESH:20mmTestCube_repaired.stl
G0 F9000 X100.3 Y100.3 Z1
;TYPE:WALL-OUTER
G1 F600 X100.3 Y119.7 E10.96919
G1 X119.7 Y119.7 E11.61444
G1 X119.7 Y110 E11.93706
G1 X119.7 Y100.3 E12.25969
G1 X100.3 Y100.3 E12.90493
;TIME_ELAPSED:43.541158
;LAYER:5
;MESH:20mmTestCube_repaired.stl
G0 F9000 X100.3 Y100.3 Z1.2
;TYPE:WALL-OUTER
G1 F600 X100.3 Y119.7 E13.55018
G1 X119.7 Y119.7 E14.19543
G1 X119.7 Y110 E14.51805
G1 X119.7 Y100.3 E14.84067
G1 X100.3 Y100.3 E15.48592
;TIME_ELAPSED:51.409087
;LAYER:6
;MESH:20mmTestCube_repaired.stl
G0 F9000 X100.3 Y100.3 Z1.4
;TYPE:WALL-OUTER
G1 F600 X100.3 Y119.7 E16.13117
G1 X119.7 Y119.7 E16.77641
G1 X119.7 Y100.3 E17.42166
G1 X100.3 Y100.3 E18.06691
;TIME_ELAPSED:59.277016
;LAYER:7
;MESH:20mmTestCube_repaired.stl
G0 F9000 X100.3 Y100.3 Z1.6
;TYPE:WALL-OUTER
G1 F600 X100.3 Y119.7 E18.71215
G1 X119.7 Y119.7 E19.3574
G1 X119.7 Y110 E19.68002
G1 X119.7 Y100.3 E20.00265
G1 X100.3 Y100.3 E20.64789
;TIME_ELAPSED:67.144946
;LAYER:8
;MESH:20mmTestCube_repaired.stl
G0 F9000 X100.3 Y100.3 Z1.8
;TYPE:WALL-OUTER
G1 F600 X100.3 Y119.7 E21.29314
G1 X119.7 Y119.7 E21.93839
G1 X119.7 Y110 E22.26101
G1 X119.7 Y100.3 E22.58363
G1 X100.3 Y100.3 E23.22888
;TIME_ELAPSED:75.012875
;LAYER:9
;MESH:20mmTestCube_repaired.stl
G0 F9000 X100.3 Y100.3 Z2
;TYPE:WALL-OUTER
G1 F600 X100.3 Y119.7 E23.87412
G1 X119.7 Y119.7 E24.51937
G1 X119.7 Y110 E24.84199
G1 X119.7 Y100.3 E25.16462
G1 X100.3 Y100.3 E25.80986
;TIME_ELAPSED:82.880804
;LAYER:10
;MESH:20mmTestCube_repaired.stl
G0 F9000 X100.3 Y100.3 Z2.2
;TYPE:WALL-OUTER
G1 F600 X100.3 Y119.7 E26.45511
G1 X119.7 Y119.7 E27.10036
G1 X119.7 Y110 E27.42298
G1 X119.7 Y100.3 E27.7456
G1 X100.3 Y100.3 E28.39085
;TIME_ELAPSED:90.748734
;LAYER:11
;MESH:20mmTestCube_repaired.stl
G0 F9000 X100.3 Y100.3 Z2.4
;TYPE:WALL-OUTER
G1 F600 X100.3 Y119.7 E29.0361
G1 X119.7 Y119.7 E29.68134
G1 X119.7 Y110 E30.00397
G1 X119.7 Y100.3 E30.32659
G1 X100.3 Y100.3 E30.97184
;TIME_ELAPSED:98.616663
;LAYER:12
;MESH:20mmTestCube_repaired.stl
G0 F9000 X100.3 Y100.3 Z2.6
;TYPE:WALL-OUTER
G1 F600 X100.3 Y119.7 E31.61708
G1 X119.7 Y119.7 E32.26233
G1 X119.7 Y110 E32.58495
G1 X119.7 Y100.3 E32.90758
G1 X100.3 Y100.3 E33.55282
;TIME_ELAPSED:106.484592
;LAYER:13
;MESH:20mmTestCube_repaired.stl
G0 F9000 X100.3 Y100.3 Z2.8
;TYPE:WALL-OUTER
G1 F600 X100.3 Y119.7 E34.19807
G1 X119.7 Y119.7 E34.84332
G1 X119.7 Y110 E35.16594
G1 X119.7 Y100.3 E35.48856
G1 X100.3 Y100.3 E36.13381
;TIME_ELAPSED:114.352522
;LAYER:14
;MESH:20mmTestCube_repaired.stl
G0 F9000 X100.3 Y100.3 Z3
;TYPE:WALL-OUTER
G1 F600 X100.3 Y119.7 E36.77906
G1 X119.7 Y119.7 E37.4243
G1 X119.7 Y100.3 E38.06955
G1 X100.3 Y100.3 E38.7148
;TIME_ELAPSED:122.220451
;LAYER:15
;MESH:20mmTestCube_repaired.stl
G0 F9000 X100.3 Y100.3 Z3.2
;TYPE:WALL-OUTER
G1 F600 X100.3 Y119.7 E39.36004
G1 X119.7 Y119.7 E40.00529
G1 X119.7 Y100.3 E40.65054
G1 X100.3 Y100.3 E41.29578
;TIME_ELAPSED:130.088380
;LAYER:16
;MESH:20mmTestCube_repaired.stl
G0 F9000 X100.3 Y100.3 Z3.4
;TYPE:WALL-OUTER
G1 F600 X100.3 Y119.7 E41.94103
G1 X119.7 Y119.7 E42.58628
G1 X119.7 Y110 E42.9089
G1 X119.7 Y100.3 E43.23152
G1 X100.3 Y100.3 E43.87677
;TIME_ELAPSED:137.956310
;LAYER:17
;MESH:20mmTestCube_repaired.stl
G0 F9000 X100.3 Y100.3 Z3.6
;TYPE:WALL-OUTER
G1 F600 X100.3 Y119.7 E44.52202
G1 X119.7 Y119.7 E45.16726
G1 X119.7 Y110 E45.48989
G1 X119.7 Y100.3 E45.81251
G1 X100.3 Y100.3 E46.45776
;TIME_ELAPSED:145.824239
;LAYER:18
;MESH:20mmTestCube_repaired.stl
G0 F9000 X100.3 Y100.3 Z3.8
;TYPE:WALL-OUTER
G1 F600 X100.3 Y119.7 E47.103
G1 X119.7 Y119.7 E47.74825
G1 X119.7 Y110 E48.07087
G1 X119.7 Y100.3 E48.3935
G1 X100.3 Y100.3 E49.03874
;TIME_ELAPSED:153.692168
;LAYER:19
;MESH:20mmTestCube_repaired.stl
G0 F9000 X100.3 Y100.3 Z4
;TYPE:WALL-OUTER
G1 F600 X100.3 Y119.7 E49.68399
G1 X119.7 Y119.7 E50.32924
G1 X119.7 Y110 E50.65186
G1 X119.7 Y100.3 E50.97448
G1 X100.3 Y100.3 E51.61973
;TIME_ELAPSED:161.560098
;LAYER:20
;MESH:20mmTestCube_repaired.stl
G0 F9000 X100.3 Y100.3 Z4.2
;TYPE:WALL-OUTER
G1 F600 X100.3 Y119.7 E52.26498
G1 X119.7 Y119.7 E52.91022
G1 X119.7 Y110 E53.23285
G1 X119.7 Y100.3 E53.55547
G1 X100.3 Y100.3 E54.20072
;TIME_ELAPSED:169.428027
;LAYER:21
;MESH:20mmTestCube_repaired.stl
G0 F9000 X100.3 Y100.3 Z4.4
;TYPE:WALL-OUTER
G1 F600 X100.3 Y119.7 E54.84596
G1 X119.7 Y119.7 E55.49121
G1 X119.7 Y110 E55.81383
G1 X119.7 Y100.3 E56.13646
G1 X100.3 Y100.3 E56.7817
;TIME_ELAPSED:177.295956
;LAYER:22
;MESH:20mmTestCube_repaired.stl
G0 F9000 X100.3 Y100.3 Z4.6
;TYPE:WALL-OUTER
G1 F600 X100.3 Y119.7 E57.42695
G1 X119.7 Y119.7 E58.0722
G1 X119.7 Y110 E58.39482
G1 X119.7 Y100.3 E58.71744
G1 X100.3 Y100.3 E59.36269
;TIME_ELAPSED:185.163886
;LAYER:23
;MESH:20mmTestCube_repaired.stl
G0 F9000 X100.3 Y100.3 Z4.8
;TYPE:WALL-OUTER
G1 F600 X100.3 Y119.7 E60.00794
G1 X119.7 Y119.7 E60.65318
G1 X119.7 Y110 E60.97581
G1 X119.7 Y100.3 E61.29843
G1 X100.3 Y100.3 E61.94368
;TIME_ELAPSED:193.031815
;LAYER:24
;MESH:20mmTestCube_repaired.stl
G0 F9000 X100.3 Y100.3 Z5
;TYPE:WALL-OUTER
G1 F600 X100.3 Y119.7 E62.58892
G1 X119.7 Y119.7 E63.23417
G1 X119.7 Y110 E63.55679
G1 X119.7 Y100.3 E63.87942
G1 X100.3 Y100.3 E64.52466
;TIME_ELAPSED:200.899744
;LAYER:25
;MESH:20mmTestCube_repaired.stl
G0 F9000 X100.3 Y100.3 Z5.2
;TYPE:WALL-OUTER
G1 F600 X100.3 Y119.7 E65.16991
G1 X119.7 Y119.7 E65.81516
G1 X119.7 Y110 E66.13778
G1 X119.7 Y100.3 E66.4604
G1 X100.3 Y100.3 E67.10565
;TIME_ELAPSED:208.767673
;LAYER:26
;MESH:20mmTestCube_repaired.stl
G0 F9000 X100.3 Y100.3 Z5.4
;TYPE:WALL-OUTER
G1 F600 X100.3 Y119.7 E67.7509
G1 X119.7 Y119.7 E68.39614
G1 X119.7 Y110 E68.71877
G1 X119.7 Y100.3 E69.04139
G1 X100.3 Y100.3 E69.68663
;TIME_ELAPSED:216.635603
;LAYER:27
;MESH:20mmTestCube_repaired.stl
G0 F9000 X100.3 Y100.3 Z5.6
;TYPE:WALL-OUTER
G1 F600 X100.3 Y119.7 E70.33188
G1 X119.7 Y119.7 E70.97713
G1 X119.7 Y110 E71.29975
G1 X119.7 Y100.3 E71.62237
G1 X100.3 Y100.3 E72.26762
;TIME_ELAPSED:224.503532
;LAYER:28
;MESH:20mmTestCube_repaired.stl
G0 F9000 X100.3 Y100.3 Z5.8
;TYPE:WALL-OUTER
G1 F600 X100.3 Y119.7 E72.91287
G1 X119.7 Y119.7 E73.55811
G1 X119.7 Y110 E73.88074
G1 X119.7 Y100.3 E74.20336
G1 X100.3 Y100.3 E74.84861
;TIME_ELAPSED:232.371461
;LAYER:29
;MESH:20mmTestCube_repaired.stl
G0 F9000 X100.3 Y100.3 Z6
;TYPE:WALL-OUTER
G1 F600 X100.3 Y119.7 E75.49385
G1 X119.7 Y119.7 E76.1391
G1 X119.7 Y110 E76.46172
G1 X119.7 Y100.3 E76.78435
G1 X100.3 Y100.3 E77.42959
;TIME_ELAPSED:240.239391
;LAYER:30
;MESH:20mmTestCube_repaired.stl
G0 F9000 X100.3 Y100.3 Z6.2
;TYPE:WALL-OUTER
G1 F600 X100.3 Y119.7 E78.07484
G1 X119.7 Y119.7 E78.72009
G1 X119.7 Y110 E79.04271
G1 X119.7 Y100.3 E79.36533
G1 X100.3 Y100.3 E80.01058
;TIME_ELAPSED:248.107320
;LAYER:31
;MESH:20mmTestCube_repaired.stl
G0 F9000 X100.3 Y100.3 Z6.4
;TYPE:WALL-OUTER
G1 F600 X100.3 Y119.7 E80.65583
G1 X119.7 Y119.7 E81.30107
G1 X119.7 Y110 E81.6237
G1 X119.7 Y100.3 E81.94632
G1 X100.3 Y100.3 E82.59157
;TIME_ELAPSED:255.975249
;LAYER:32
;MESH:20mmTestCube_repaired.stl
G0 F9000 X100.3 Y100.3 Z6.6
;TYPE:WALL-OUTER
G1 F600 X100.3 Y119.7 E83.23681
G1 X119.7 Y119.7 E83.88206
G1 X119.7 Y110 E84.20468
G1 X119.7 Y100.3 E84.52731
G1 X100.3 Y100.3 E85.17255
;TIME_ELAPSED:263.843179
;LAYER:33
;MESH:20mmTestCube_repaired.stl
G0 F9000 X100.3 Y100.3 Z6.8
;TYPE:WALL-OUTER
G1 F600 X100.3 Y119.7 E85.8178
G1 X119.7 Y119.7 E86.46305
G1 X119.7 Y110 E86.78567
G1 X119.7 Y100.3 E87.10829
G1 X100.3 Y100.3 E87.75354
;TIME_ELAPSED:271.711108
;LAYER:34
;MESH:20mmTestCube_repaired.stl
G0 F9000 X100.3 Y100.3 Z7
;TYPE:WALL-OUTER
G1 F600 X100.3 Y119.7 E88.39879
G1 X119.7 Y119.7 E89.04403
G1 X119.7 Y100.3 E89.68928
G1 X110 Y100.3 E90.0119
G1 X100.3 Y100.3 E90.33453
;TIME_ELAPSED:279.579037
;LAYER:35
;MESH:20mmTestCube_repaired.stl
G0 F9000 X100.3 Y100.3 Z7.2
;TYPE:WALL-OUTER
G1 F600 X100.3 Y119.7 E90.97977
G1 X119.7 Y119.7 E91.62502
G1 X119.7 Y110 E91.94764
G1 X119.7 Y100.3 E92.27027
G1 X100.3 Y100.3 E92.91551
;TIME_ELAPSED:287.446967
;LAYER:36
;MESH:20mmTestCube_repaired.stl
G0 F9000 X100.3 Y100.3 Z7.4
;TYPE:WALL-OUTER
G1 F600 X100.3 Y119.7 E93.56076
G1 X119.7 Y119.7 E94.20601
G1 X119.7 Y110 E94.52863
G1 X119.7 Y100.3 E94.85125
G1 X100.3 Y100.3 E95.4965
;TIME_ELAPSED:295.314896
;LAYER:37
;MESH:20mmTestCube_repaired.stl
G0 F9000 X100.3 Y100.3 Z7.6
;TYPE:WALL-OUTER
G1 F600 X100.3 Y119.7 E96.14175
G1 X119.7 Y119.7 E96.78699
G1 X119.7 Y110 E97.10962
G1 X119.7 Y100.3 E97.43224
G1 X100.3 Y100.3 E98.07749
;TIME_ELAPSED:303.182825
;LAYER:38
;MESH:20mmTestCube_repaired.stl
G0 F9000 X100.3 Y100.3 Z7.8
;TYPE:WALL-OUTER
G1 F600 X100.3 Y119.7 E98.72273
G1 X119.7 Y119.7 E99.36798
G1 X119.7 Y110 E99.6906
G1 X119.7 Y100.3 E100.01323
G1 X100.3 Y100.3 E100.65847
;TIME_ELAPSED:311.050755
;LAYER:39
;MESH:20mmTestCube_repaired.stl
G0 F9000 X100.3 Y100.3 Z8
;TYPE:WALL-OUTER
G1 F600 X100.3 Y119.7 E101.30372
G1 X119.7 Y119.7 E101.94897
G1 X119.7 Y110 E102.27159
G1 X119.7 Y100.3 E102.59421
G1 X100.3 Y100.3 E103.23946
;TIME_ELAPSED:318.918684
;LAYER:40
;MESH:20mmTestCube_repaired.stl
G0 F9000 X100.3 Y100.3 Z8.2
;TYPE:WALL-OUTER
G1 F600 X100.3 Y119.7 E103.88471
G1 X119.7 Y119.7 E104.52995
G1 X119.7 Y110 E104.85258
G1 X119.7 Y100.3 E105.1752
G1 X100.3 Y100.3 E105.82045
;TIME_ELAPSED:326.786613
;LAYER:41
;MESH:20mmTestCube_repaired.stl
G0 F9000 X100.3 Y100.3 Z8.4
;TYPE:WALL-OUTER
G1 F600 X100.3 Y110 E106.14307
G1 X100.3 Y119.7 E106.46569
G1 X119.7 Y119.7 E107.11094
G1 X119.7 Y100.3 E107.75619
G1 X100.3 Y100.3 E108.40143
;TIME_ELAPSED:334.654543
;LAYER:42
;MESH:20mmTestCube_repaired.stl
G0 F9000 X100.3 Y100.3 Z8.6
;TYPE:WALL-OUTER
G1 F600 X100.3 Y119.7 E109.04668
G1 X119.7 Y119.7 E109.69193
G1 X119.7 Y110 E110.01455
G1 X119.7 Y100.3 E110.33717
G1 X100.3 Y100.3 E110.98242
;TIME_ELAPSED:342.522472
;LAYER:43
;MESH:20mmTestCube_repaired.stl
G0 F9000 X100.3 Y100.3 Z8.8
;TYPE:WALL-OUTER
G1 F600 X100.3 Y119.7 E111.62767
G1 X119.7 Y119.7 E112.27291
G1 X119.7 Y110 E112.59554
G1 X119.7 Y100.3 E112.91816
G1 X100.3 Y100.3 E113.56341
;TIME_ELAPSED:350.390401
;LAYER:44
;MESH:20mmTestCube_repaired.stl
G0 F9000 X100.3 Y100.3 Z9
;TYPE:WALL-OUTER
G1 F600 X100.3 Y119.7 E114.20865
G1 X119.7 Y119.7 E114.8539
G1 X119.7 Y110 E115.17652
G1 X119.7 Y100.3 E115.49914
G1 X100.3 Y100.3 E116.14439
;TIME_ELAPSED:358.258331
;LAYER:45
;MESH:20mmTestCube_repaired.stl
G0 F9000 X100.3 Y100.3 Z9.2
;TYPE:WALL-OUTER
G1 F600 X100.3 Y119.7 E116.78964
G1 X119.7 Y119.7 E117.43488
G1 X119.7 Y110 E117.75751
G1 X119.7 Y100.3 E118.08013
G1 X100.3 Y100.3 E118.72538
;TIME_ELAPSED:366.126260
;LAYER:46
;MESH:20mmTestCube_repaired.stl
G0 F9000 X100.3 Y100.3 Z9.4
;TYPE:WALL-OUTER
G1 F600 X100.3 Y119.7 E119.37062
G1 X119.7 Y119.7 E120.01587
G1 X119.7 Y110 E120.33849
G1 X119.7 Y100.3 E120.66112
G1 X100.3 Y100.3 E121.30636
;TIME_ELAPSED:373.994189
;LAYER:47
;MESH:20mmTestCube_repaired.stl
G0 F9000 X100.3 Y100.3 Z9.6
;TYPE:WALL-OUTER
G1 F600 X100.3 Y119.7 E121.95161
G1 X119.7 Y119.7 E122.59686
G1 X119.7 Y110 E122.91948
G1 X119.7 Y100.3 E123.2421
G1 X100.3 Y100.3 E123.88735
;TIME_ELAPSED:381.862119
;LAYER:48
;MESH:20mmTestCube_repaired.stl
G0 F9000 X100.3 Y100.3 Z9.8
;TYPE:WALL-OUTER
G1 F600 X100.3 Y119.7 E124.5326
G1 X119.7 Y119.7 E125.17784
G1 X119.7 Y110 E125.50047
G1 X119.7 Y100.3 E125.82309
G1 X100.3 Y100.3 E126.46834
;TIME_ELAPSED:389.730048
;LAYER:49
;MESH:20mmTestCube_repaired.stl
G0 F9000 X100.3 Y100.3 Z10
;TYPE:WALL-OUTER
G1 F600 X100.3 Y119.7 E127.11358
G1 X119.7 Y119.7 E127.75883
G1 X119.7 Y110 E128.08145
G1 X119.7 Y100.3 E128.40408
G1 X100.3 Y100.3 E129.04932
;TIME_ELAPSED:397.597977
;LAYER:50
;MESH:20mmTestCube_repaired.stl
G0 F9000 X100.3 Y100.3 Z10.2
;TYPE:WALL-OUTER
G1 F600 X100.3 Y119.7 E129.69457
G1 X119.7 Y119.7 E130.33982
G1 X119.7 Y110 E130.66244
G1 X119.7 Y100.3 E130.98506
G1 X100.3 Y100.3 E131.63031
;TIME_ELAPSED:405.465907
;LAYER:51
;MESH:20mmTestCube_repaired.stl
G0 F9000 X100.3 Y100.3 Z10.4
;TYPE:WALL-OUTER
G1 F600 X100.3 Y119.7 E132.27556
G1 X119.7 Y119.7 E132.9208
G1 X119.7 Y110 E133.24343
G1 X119.7 Y100.3 E133.56605
G1 X100.3 Y100.3 E134.2113
;TIME_ELAPSED:413.333836
;LAYER:52
;MESH:20mmTestCube_repaired.stl
G0 F9000 X100.3 Y100.3 Z10.6
;TYPE:WALL-OUTER
G1 F600 X100.3 Y119.7 E134.85654
G1 X119.7 Y119.7 E135.50179
G1 X119.7 Y110 E135.82441
G1 X119.7 Y100.3 E136.14704
G1 X100.3 Y100.3 E136.79228
;TIME_ELAPSED:421.201765
;LAYER:53
;MESH:20mmTestCube_repaired.stl
G0 F9000 X100.3 Y100.3 Z10.8
;TYPE:WALL-OUTER
G1 F600 X100.3 Y119.7 E137.43753
G1 X119.7 Y119.7 E138.08278
G1 X119.7 Y110 E138.4054
G1 X119.7 Y100.3 E138.72802
G1 X100.3 Y100.3 E139.37327
;TIME_ELAPSED:429.069695
;LAYER:54
;MESH:20mmTestCube_repaired.stl
G0 F9000 X100.3 Y100.3 Z11
;TYPE:WALL-OUTER
G1 F600 X100.3 Y119.7 E140.01852
G1 X119.7 Y119.7 E140.66376
G1 X119.7 Y110 E140.98639
G1 X119.7 Y100.3 E141.30901
G1 X100.3 Y100.3 E141.95426
;TIME_ELAPSED:436.937624
;LAYER:55
;MESH:20mmTestCube_repaired.stl
G0 F9000 X100.3 Y100.3 Z11.2
;TYPE:WALL-OUTER
G1 F600 X100.3 Y119.7 E142.5995
G1 X119.7 Y119.7 E143.24475
G1 X119.7 Y110 E143.56737
G1 X119.7 Y100.3 E143.89
G1 X100.3 Y100.3 E144.53524
;TIME_ELAPSED:444.805553
;LAYER:56
;MESH:20mmTestCube_repaired.stl
G0 F9000 X100.3 Y100.3 Z11.4
;TYPE:WALL-OUTER
G1 F600 X100.3 Y110 E144.85787
G1 X100.3 Y119.7 E145.18049
G1 X119.7 Y119.7 E145.82574
G1 X119.7 Y100.3 E146.47098
G1 X100.3 Y100.3 E147.11623
;TIME_ELAPSED:452.673483
;LAYER:57
;MESH:20mmTestCube_repaired.stl
G0 F9000 X100.3 Y100.3 Z11.6
;TYPE:WALL-OUTER
G1 F600 X100.3 Y119.7 E147.76148
G1 X119.7 Y119.7 E148.40672
G1 X119.7 Y110 E148.72935
G1 X119.7 Y100.3 E149.05197
G1 X100.3 Y100.3 E149.69722
;TIME_ELAPSED:460.541412
;LAYER:58
;MESH:20mmTestCube_repaired.stl
G0 F9000 X100.3 Y100.3 Z11.8
;TYPE:WALL-OUTER
G1 F600 X100.3 Y119.7 E150.34246
G1 X119.7 Y119.7 E150.98771
G1 X119.7 Y110 E151.31033
G1 X119.7 Y100.3 E151.63296
G1 X100.3 Y100.3 E152.2782
;TIME_ELAPSED:468.409341
;LAYER:59
;MESH:20mmTestCube_repaired.stl
G0 F9000 X100.3 Y100.3 Z12
;TYPE:WALL-OUTER
G1 F600 X100.3 Y119.7 E152.92345
G1 X119.7 Y119.7 E153.5687
G1 X119.7 Y110 E153.89132
G1 X119.7 Y100.3 E154.21394
G1 X100.3 Y100.3 E154.85919
;TIME_ELAPSED:476.277271
;LAYER:60
;MESH:20mmTestCube_repaired.stl
G0 F9000 X100.3 Y100.3 Z12.2
;TYPE:WALL-OUTER
G1 F600 X100.3 Y119.7 E155.50444
G1 X119.7 Y119.7 E156.14968
G1 X119.7 Y110 E156.47231
G1 X119.7 Y100.3 E156.79493
G1 X100.3 Y100.3 E157.44018
;TIME_ELAPSED:484.145200
;LAYER:61
;MESH:20mmTestCube_repaired.stl
G0 F9000 X100.3 Y100.3 Z12.4
;TYPE:WALL-OUTER
G1 F600 X100.3 Y119.7 E158.08542
