;FLAVOR:Marlin
;TIME:670
;Filament used: 0.314162m
;Layer height: 0.2
;MINX:19.5
;MINY:19.5
;MINZ:0.2
;MAXX:200.5
;MAXY:200.5
;MAXZ:0.2
;Generated with Cura_SteamEngine main
M140 S60
M105
M190 S60
M104 S230
M105
M109 S230
M82 ;absolute extrusion mode
G28 ;Home

G92 E0 ;Reset Extruder
G1 Z2.0 F3000 ;Move Z Axis up
G1 X10.1 Y20 Z0.28 F5000.0 ;Move to start position
G1 X10.1 Y200.0 Z0.28 F1500.0 E15 ;Draw the first line
G1 X10.4 Y200.0 Z0.28 F5000.0 ;Move to side a little
G1 X10.4 Y20 Z0.28 F1500.0 E30 ;Draw the second line
G92 E0 ;Reset Extruder
G1 Z2.0 F3000 ;Move Z Axis up
G92 E0
G92 E0
G1 F3000 E-1
;LAYER_COUNT:1
;LAYER:0
M107
G0 F6000 X20.939 Y21.371 Z0.2
G0 X19.501 Y25.698
;TYPE:SKIRT
G1 F3000 E0
G1 F900 X19.51 Y25.033 E0.02212
G1 X19.559 Y24.366 E0.04436
G1 X19.687 Y23.709 E0.06663
G1 X19.892 Y23.073 E0.08885
G1 X20.172 Y22.465 E0.11112
G1 X20.523 Y21.895 E0.13338
G1 X20.939 Y21.371 E0.15563
G1 X21.414 Y20.901 E0.17786
G1 X21.943 Y20.49 E0.20014
G1 X22.516 Y20.145 E0.22239
G1 X23.127 Y19.872 E0.24464
G1 X23.765 Y19.673 E0.26687
G1 X24.423 Y19.551 E0.28913
G1 X24.952 Y19.511 E0.30677
G1 X25.43 Y19.5 E0.32268
G1 X44.193 Y19.5 E0.94674
G1 X44.976 Y19.511 E0.97278
G1 X45.643 Y19.56 E0.99503
G1 X46.299 Y19.689 E1.01726
G1 X46.936 Y19.895 E1.03953
G1 X47.543 Y20.175 E1.06176
G1 X48.113 Y20.526 E1.08403
G1 X48.486 Y20.812 E1.09966
G1 X49.655 Y21.789 E1.15033
G1 X51.731 Y23.466 E1.2391
G1 X53.867 Y25.093 E1.3284
G1 X56.037 Y26.653 E1.41729
G1 X58.23 Y28.135 E1.50532
G1 X60.488 Y29.57 E1.59431
G1 X62.788 Y30.942 E1.68338
G1 X65.125 Y32.248 E1.77243
G1 X67.49 Y33.484 E1.86118
G1 X69.889 Y34.652 E1.94993
G1 X72.323 Y35.753 E2.03878
G1 X74.765 Y36.776 E2.12684
G1 X77.31 Y37.757 E2.21756
G1 X79.768 Y38.627 E2.30428
G1 X82.354 Y39.459 E2.39463
G1 X84.878 Y40.195 E2.48208
G1 X87.499 Y40.878 E2.57216
G1 X90.054 Y41.468 E2.65938
G1 X92.724 Y42.004 E2.74996
G1 X95.324 Y42.452 E2.83771
G1 X97.973 Y42.83 E2.9267
G1 X100.619 Y43.132 E3.01528
G1 X103.289 Y43.361 E3.10441
G1 X105.947 Y43.513 E3.19296
G1 X108.628 Y43.59 E3.28217
G1 X111.282 Y43.592 E3.37044
G1 X113.972 Y43.517 E3.45995
G1 X116.621 Y43.369 E3.54819
G1 X119.294 Y43.143 E3.63741
G1 X121.905 Y42.847 E3.72481
G1 X124.603 Y42.465 E3.81544
G1 X127.196 Y42.022 E3.90293
G1 X129.81 Y41.5 E3.99159
G1 X132.442 Y40.895 E4.08142
G1 X135.009 Y40.228 E4.16963
G1 X137.571 Y39.487 E4.25834
G1 X140.127 Y38.665 E4.34764
G1 X142.651 Y37.776 E4.43664
G1 X145.109 Y36.832 E4.52422
G1 X147.595 Y35.794 E4.61382
G1 X150.014 Y34.702 E4.70209
G1 X152.452 Y33.519 E4.79222
G1 X154.79 Y32.301 E4.8799
G1 X157.131 Y30.996 E4.96905
G1 X159.433 Y29.626 E5.05815
G1 X161.674 Y28.205 E5.1464
G1 X163.913 Y26.694 E5.23624
G1 X166.045 Y25.167 E5.32347
G1 X168.207 Y23.523 E5.4138
G1 X170.282 Y21.852 E5.50241
G1 X171.497 Y20.828 E5.55526
G1 X172.033 Y20.428 E5.57751
G1 X172.614 Y20.095 E5.59978
G1 X173.229 Y19.834 E5.622
G1 X173.872 Y19.648 E5.64426
G1 X174.532 Y19.539 E5.66651
G1 X174.933 Y19.513 E5.67988
G1 X175.43 Y19.5 E5.69641
G1 X194.265 Y19.5 E6.32287
G1 X194.963 Y19.509 E6.34609
G1 X195.63 Y19.558 E6.36833
G1 X196.287 Y19.686 E6.39059
G1 X196.924 Y19.891 E6.41285
G1 X197.532 Y20.171 E6.43511
G1 X198.102 Y20.521 E6.45736
G1 X198.626 Y20.937 E6.47961
G1 X199.097 Y21.412 E6.50186
G1 X199.508 Y21.94 E6.52412
G1 X199.853 Y22.513 E6.54636
G1 X200.127 Y23.123 E6.5686
G1 X200.327 Y23.762 E6.59087
G1 X200.448 Y24.42 E6.61313
G1 X200.489 Y24.952 E6.63087
G1 X200.5 Y25.43 E6.64678
G1 X200.499 Y44.251 E7.27277
G1 X200.489 Y44.974 E7.29681
G1 X200.44 Y45.642 E7.31909
G1 X200.312 Y46.298 E7.34132
G1 X200.106 Y46.935 E7.36359
G1 X199.826 Y47.542 E7.38582
G1 X199.475 Y48.112 E7.40809
G1 X199.186 Y48.489 E7.42389
G1 X198.22 Y49.644 E7.47397
G1 X196.534 Y51.731 E7.5632
G1 X194.907 Y53.867 E7.65251
G1 X193.347 Y56.037 E7.7414
G1 X191.865 Y58.23 E7.82943
G1 X190.423 Y60.499 E7.91885
G1 X189.055 Y62.791 E8.00763
G1 X187.76 Y65.109 E8.09594
G1 X186.516 Y67.49 E8.18529
G1 X185.348 Y69.889 E8.27403
G1 X184.257 Y72.299 E8.36202
G1 X183.198 Y74.834 E8.4534
G1 X182.264 Y77.253 E8.53964
G1 X181.369 Y79.78 E8.62881
G1 X180.538 Y82.363 E8.71905
G1 X179.81 Y84.86 E8.80556
G1 X179.124 Y87.488 E8.8959
G1 X178.517 Y90.123 E8.98584
G1 X178.005 Y92.673 E9.07234
G1 X177.548 Y95.325 E9.16185
G1 X177.169 Y97.977 E9.25095
G1 X176.868 Y100.616 E9.33929
G1 X176.639 Y103.289 E9.42852
G1 X176.487 Y105.948 E9.5171
G1 X176.41 Y108.628 E9.60628
G1 X176.408 Y111.283 E9.69458
G1 X176.483 Y113.969 E9.78396
G1 X176.631 Y116.62 E9.87227
G1 X176.857 Y119.294 E9.96152
G1 X177.153 Y121.904 E10.04889
G1 X177.534 Y124.597 E10.13935
G1 X177.981 Y127.213 E10.22762
G1 X178.502 Y129.818 E10.31598
G1 X179.097 Y132.413 E10.40453
G1 X179.774 Y135.018 E10.49405
G1 X180.513 Y137.571 E10.58245
G1 X181.331 Y140.116 E10.67136
G1 X182.226 Y142.656 E10.76093
G1 X183.174 Y145.122 E10.8488
G1 X184.207 Y147.594 E10.93791
G1 X185.307 Y150.033 E11.0269
G1 X186.472 Y152.435 E11.11569
G1 X187.699 Y154.79 E11.20401
G1 X189.011 Y157.144 E11.29365
G1 X190.37 Y159.428 E11.38204
G1 X191.788 Y161.665 E11.47013
G1 X193.305 Y163.912 E11.56031
G1 X194.845 Y166.063 E11.6483
G1 X196.46 Y168.187 E11.73704
G1 X198.142 Y170.276 E11.82625
G1 X199.169 Y171.492 E11.87918
G1 X199.569 Y172.028 E11.90143
G1 X199.903 Y172.608 E11.92369
G1 X200.165 Y173.224 E11.94595
G1 X200.351 Y173.866 E11.96819
G1 X200.46 Y174.527 E11.99047
G1 X200.487 Y174.933 E12.004
G1 X200.5 Y175.43 E12.02054
G1 X200.5 Y194.233 E12.64593
G1 X200.491 Y194.96 E12.67011
G1 X200.442 Y195.628 E12.69239
G1 X200.315 Y196.284 E12.71461
G1 X200.11 Y196.921 E12.73687
G1 X199.831 Y197.529 E12.75912
G1 X199.481 Y198.099 E12.78136
G1 X199.065 Y198.624 E12.80364
G1 X198.59 Y199.095 E12.82589
G1 X198.063 Y199.506 E12.84812
G1 X197.49 Y199.852 E12.87038
G1 X196.88 Y200.126 E12.89262
G1 X196.241 Y200.326 E12.91489
G1 X195.583 Y200.448 E12.93715
G1 X195.048 Y200.489 E12.955
G1 X194.57 Y200.5 E12.9709
G1 X175.727 Y200.499 E13.59762
G1 X175.024 Y200.489 E13.62101
G1 X174.357 Y200.44 E13.64325
G1 X173.701 Y200.311 E13.66549
G1 X173.064 Y200.105 E13.68775
G1 X172.457 Y199.825 E13.70999
G1 X171.887 Y199.474 E13.73225
G1 X171.514 Y199.188 E13.74788
G1 X170.345 Y198.211 E13.79856
G1 X168.269 Y196.534 E13.88732
G1 X166.133 Y194.907 E13.97662
G1 X163.963 Y193.347 E14.06551
G1 X161.77 Y191.865 E14.15355
G1 X159.512 Y190.43 E14.24253
G1 X157.212 Y189.058 E14.33161
G1 X154.875 Y187.752 E14.42065
G1 X152.51 Y186.516 E14.5094
G1 X150.111 Y185.348 E14.59815
G1 X147.677 Y184.247 E14.687
G1 X145.235 Y183.224 E14.77506
G1 X142.69 Y182.243 E14.86578
G1 X140.232 Y181.373 E14.9525
G1 X137.646 Y180.541 E15.04286
G1 X135.122 Y179.805 E15.1303
G1 X132.501 Y179.122 E15.22039
G1 X129.946 Y178.532 E15.3076
G1 X127.276 Y177.996 E15.39818
G1 X124.676 Y177.548 E15.48593
G1 X122.027 Y177.17 E15.57493
G1 X119.381 Y176.868 E15.66351
G1 X116.711 Y176.639 E15.75264
G1 X114.053 Y176.487 E15.84119
G1 X111.372 Y176.41 E15.93039
G1 X108.718 Y176.408 E16.01867
G1 X106.028 Y176.483 E16.10817
G1 X103.379 Y176.631 E16.19641
G1 X100.706 Y176.857 E16.28564
G1 X98.095 Y177.153 E16.37303
G1 X95.397 Y177.535 E16.46367
G1 X92.804 Y177.978 E16.55116
G1 X90.19 Y178.5 E16.63982
G1 X87.558 Y179.105 E16.72964
G1 X84.991 Y179.772 E16.81785
G1 X82.429 Y180.513 E16.90656
G1 X79.873 Y181.335 E16.99586
G1 X77.349 Y182.224 E17.08486
G1 X74.891 Y183.168 E17.17244
G1 X72.405 Y184.206 E17.26204
G1 X69.986 Y185.298 E17.35032
G1 X67.551 Y186.48 E17.44034
G1 X65.21 Y187.699 E17.52813
G1 X62.869 Y189.004 E17.61727
G1 X60.567 Y190.374 E17.70637
G1 X58.326 Y191.795 E17.79463
G1 X56.088 Y193.305 E17.88442
G1 X53.955 Y194.833 E17.97169
G1 X51.794 Y196.476 E18.06198
G1 X49.718 Y198.148 E18.15064
G1 X48.503 Y199.172 E18.20349
G1 X47.967 Y199.572 E18.22573
G1 X47.386 Y199.905 E18.248
G1 X46.771 Y200.166 E18.27022
G1 X46.128 Y200.352 E18.29249
G1 X45.468 Y200.461 E18.31474
G1 X45.067 Y200.487 E18.3281
G1 X44.57 Y200.5 E18.34464
G1 X25.735 Y200.5 E18.97109
G1 X25.037 Y200.491 E18.99431
G1 X24.37 Y200.442 E19.01655
G1 X23.713 Y200.314 E19.03882
G1 X23.076 Y200.109 E19.06107
G1 X22.468 Y199.829 E19.08334
G1 X21.898 Y199.479 E19.10558
G1 X21.374 Y199.063 E19.12784
G1 X20.903 Y198.588 E19.15009
G1 X20.492 Y198.06 E19.17234
G1 X20.147 Y197.487 E19.19459
G1 X19.873 Y196.877 E19.21683
G1 X19.673 Y196.238 E19.2391
G1 X19.552 Y195.58 E19.26135
G1 X19.511 Y195.042 E19.2793
G1 X19.5 Y194.558 E19.2954
G1 X19.501 Y175.727 E19.92172
G1 X19.511 Y175.024 E19.9451
G1 X19.56 Y174.357 E19.96735
G1 X19.689 Y173.701 E19.98958
G1 X19.895 Y173.064 E20.01185
G1 X20.175 Y172.457 E20.03409
G1 X20.526 Y171.887 E20.05635
G1 X20.812 Y171.514 E20.07198
G1 X21.802 Y170.329 E20.12334
G1 X23.466 Y168.269 E20.21142
G1 X25.094 Y166.132 E20.30077
G1 X26.655 Y163.959 E20.38976
G1 X28.135 Y161.77 E20.47764
G1 X29.581 Y159.495 E20.5673
G1 X30.948 Y157.203 E20.65606
G1 X32.24 Y154.891 E20.74415
G1 X33.492 Y152.495 E20.83407
G1 X34.656 Y150.103 E20.92255
G1 X35.743 Y147.701 E21.01024
G1 X36.802 Y145.166 E21.10161
G1 X37.736 Y142.747 E21.18786
G1 X38.631 Y140.22 E21.27702
G1 X39.462 Y137.637 E21.36727
G1 X40.19 Y135.14 E21.45378
G1 X40.876 Y132.512 E21.54411
G1 X41.483 Y129.877 E21.63405
G1 X41.995 Y127.327 E21.72056
G1 X42.454 Y124.659 E21.8106
G1 X42.832 Y122.013 E21.8995
G1 X43.134 Y119.363 E21.98821
G1 X43.361 Y116.711 E22.07674
G1 X43.514 Y114.036 E22.16585
G1 X43.59 Y111.365 E22.25473
G1 X43.592 Y108.717 E22.3428
G1 X43.517 Y106.028 E22.43227
G1 X43.369 Y103.379 E22.52051
G1 X43.143 Y100.706 E22.60974
G1 X42.847 Y98.095 E22.69713
G1 X42.465 Y95.397 E22.78777
G1 X42.02 Y92.791 E22.8757
G1 X41.497 Y90.179 E22.9643
G1 X40.903 Y87.587 E23.05274
G1 X40.223 Y84.97 E23.14267
G1 X39.487 Y82.428 E23.23069
G1 X38.663 Y79.865 E23.32024
G1 X37.775 Y77.346 E23.40907
G1 X36.819 Y74.861 E23.49763
G1 X35.793 Y72.406 E23.58613
G1 X34.693 Y69.967 E23.67512
G1 X33.528 Y67.565 E23.76391
G1 X32.289 Y65.188 E23.85306
G1 X30.999 Y62.875 E23.94115
G1 X29.623 Y60.561 E24.03069
G1 X28.212 Y58.335 E24.11835
G1 X26.699 Y56.095 E24.20826
G1 X25.144 Y53.924 E24.29707
G1 X23.533 Y51.804 E24.38563
G1 X21.859 Y49.725 E24.47441
G1 X20.832 Y48.51 E24.52733
G1 X20.432 Y47.974 E24.54957
G1 X20.098 Y47.394 E24.57183
G1 X19.836 Y46.779 E24.59406
G1 X19.649 Y46.136 E24.61634
G1 X19.54 Y45.476 E24.63859
G1 X19.513 Y45.068 E24.65219
G1 X19.5 Y44.57 E24.66875
G1 X19.501 Y25.698 E25.29644
G0 F6000 X19.9 Y25.704
G1 F900 X19.909 Y25.039 E25.31856
G1 X19.958 Y24.396 E25.34001
G1 X20.086 Y23.764 E25.36146
G1 X20.291 Y23.153 E25.38289
G1 X20.57 Y22.572 E25.40433
G1 X20.919 Y22.029 E25.4258
G1 X21.332 Y21.535 E25.44721
G1 X21.803 Y21.095 E25.46865
G1 X22.326 Y20.717 E25.49011
G1 X22.89 Y20.406 E25.51153
G1 X23.489 Y20.168 E25.53297
G1 X24.113 Y20.005 E25.55442
G1 X24.963 Y19.911 E25.58287
G1 X25.43 Y19.9 E25.5984
G1 X44.193 Y19.9 E26.22246
G1 X44.97 Y19.911 E26.24831
G1 X45.613 Y19.96 E26.26976
G1 X46.245 Y20.088 E26.2912
G1 X46.856 Y20.293 E26.31264
G1 X47.437 Y20.573 E26.33409
G1 X48.23 Y21.119 E26.36611
G1 X49.398 Y22.095 E26.41674
G1 X51.505 Y23.797 E26.50683
G1 X53.614 Y25.404 E26.59501
G1 X55.802 Y26.976 E26.68462
G1 X58.013 Y28.471 E26.77339
G1 X60.299 Y29.924 E26.86349
G1 X62.567 Y31.276 E26.95131
G1 X64.951 Y32.609 E27.04215
G1 X67.308 Y33.841 E27.13061
G1 X69.699 Y35.005 E27.21906
G1 X72.152 Y36.115 E27.30861
G1 X74.633 Y37.154 E27.39807
G1 X77.169 Y38.131 E27.48846
G1 X79.659 Y39.013 E27.57632
G1 X82.224 Y39.838 E27.66594
G1 X84.771 Y40.58 E27.75417
G1 X87.38 Y41.261 E27.84386
G1 X90.016 Y41.869 E27.93383
G1 X92.614 Y42.391 E28.02197
G1 X95.277 Y42.849 E28.11184
G1 X97.942 Y43.23 E28.20138
G1 X100.572 Y43.53 E28.28942
G1 X103.268 Y43.761 E28.37942
G1 X105.912 Y43.913 E28.4675
G1 X108.617 Y43.99 E28.55751
G1 X111.293 Y43.992 E28.64651
G1 X113.972 Y43.917 E28.73565
G1 X116.638 Y43.768 E28.82446
G1 X119.339 Y43.54 E28.91462
G1 X121.97 Y43.242 E29.00268
G1 X124.654 Y42.862 E29.09284
G1 X127.304 Y42.409 E29.18226
G1 X129.873 Y41.896 E29.26939
G1 X132.526 Y41.287 E29.35993
G1 X135.125 Y40.611 E29.44925
G1 X137.689 Y39.869 E29.53803
G1 X140.277 Y39.037 E29.62844
G1 X142.76 Y38.163 E29.71599
G1 X145.258 Y37.203 E29.805
G1 X147.748 Y36.163 E29.89475
G1 X150.204 Y35.055 E29.98437
G1 X152.63 Y33.878 E30.07405
G1 X154.991 Y32.648 E30.1626
G1 X157.325 Y31.347 E30.25147
G1 X159.631 Y29.974 E30.34073
G1 X161.906 Y28.532 E30.43032
G1 X164.122 Y27.036 E30.51925
G1 X166.297 Y25.479 E30.60821
G1 X168.431 Y23.856 E30.69739
G1 X170.557 Y22.144 E30.78817
G1 X171.755 Y21.134 E30.84029
G1 X172.272 Y20.75 E30.86171
G1 X172.834 Y20.433 E30.88317
G1 X173.43 Y20.188 E30.9046
G1 X174.052 Y20.018 E30.92605
G1 X174.946 Y19.912 E30.95599
G1 X175.43 Y19.9 E30.9721
G1 X194.26 Y19.9 E31.59838
G1 X194.958 Y19.909 E31.6216
G1 X195.601 Y19.958 E31.64305
G1 X196.233 Y20.085 E31.66449
G1 X196.844 Y20.29 E31.68593
G1 X197.425 Y20.568 E31.70735
G1 X197.968 Y20.917 E31.72882
G1 X198.463 Y21.33 E31.75026
G1 X198.903 Y21.801 E31.7717
G1 X199.282 Y22.323 E31.79315
G1 X199.593 Y22.887 E31.81457
G1 X199.831 Y23.486 E31.83601
G1 X199.994 Y24.11 E31.85746
G1 X200.089 Y24.963 E31.88601
G1 X200.1 Y25.43 E31.90155
G1 X200.1 Y44.246 E32.52737
G1 X200.09 Y44.969 E32.55142
G1 X200.041 Y45.612 E32.57287
G1 X199.913 Y46.244 E32.59431
G1 X199.707 Y46.855 E32.61576
G1 X199.428 Y47.436 E32.6372
G1 X199.079 Y47.978 E32.65864
G1 X198.879 Y48.233 E32.66942
G1 X197.914 Y49.387 E32.71945
G1 X196.204 Y51.503 E32.80994
G1 X194.596 Y53.614 E32.8982
G1 X193.024 Y55.802 E32.98781
G1 X191.529 Y58.013 E33.07658
G1 X190.086 Y60.285 E33.1661
G1 X188.706 Y62.597 E33.25565
G1 X187.399 Y64.935 E33.34474
G1 X186.159 Y67.308 E33.43379
G1 X185.001 Y69.686 E33.52176
G1 X183.882 Y72.159 E33.61204
G1 X182.827 Y74.684 E33.70306
G1 X181.889 Y77.113 E33.78967
G1 X180.987 Y79.661 E33.87957
G1 X180.161 Y82.228 E33.96926
G1 X179.422 Y84.762 E34.05705
G1 X178.733 Y87.402 E34.1478
G1 X178.131 Y90.015 E34.23698
G1 X177.611 Y92.605 E34.32484
G1 X177.153 Y95.267 E34.41468
G1 X176.77 Y97.941 E34.50453
G1 X176.47 Y100.573 E34.59264
G1 X176.239 Y103.268 E34.6826
G1 X176.087 Y105.913 E34.77072
G1 X176.01 Y108.617 E34.86069
G1 X176.008 Y111.293 E34.94969
G1 X176.083 Y113.97 E35.03877
G1 X176.232 Y116.642 E35.12778
G1 X176.46 Y119.336 E35.2177
G1 X176.758 Y121.974 E35.306
G1 X177.138 Y124.649 E35.39586
G1 X177.588 Y127.288 E35.4849
G1 X178.112 Y129.907 E35.57374
G1 X178.706 Y132.498 E35.66215
G1 X179.389 Y135.124 E35.7524
G1 X180.137 Y137.709 E35.8419
G1 X180.956 Y140.256 E35.93089
G1 X181.84 Y142.765 E36.01936
G1 X182.805 Y145.276 E36.10884
G1 X183.85 Y147.777 E36.19899
G1 X184.94 Y150.194 E36.28717
G1 X186.115 Y152.616 E36.37671
G1 X187.352 Y154.991 E36.46578
G1 X188.647 Y157.314 E36.55423
G1 X190.038 Y159.651 E36.64469
G1 X191.462 Y161.897 E36.73314
G1 X192.964 Y164.122 E36.82243
G1 X194.518 Y166.292 E36.9112
G1 X196.158 Y168.45 E37.00135
G1 X197.828 Y170.524 E37.08991
G1 X198.863 Y171.75 E37.14328
G1 X199.248 Y172.268 E37.16475
G1 X199.565 Y172.829 E37.18618
G1 X199.811 Y173.425 E37.20762
G1 X199.981 Y174.047 E37.22907
G1 X200.088 Y174.945 E37.25915
G1 X200.1 Y175.43 E37.27528
G1 X200.1 Y194.228 E37.90051
G1 X200.091 Y194.955 E37.92469
G1 X200.043 Y195.598 E37.94614
G1 X199.916 Y196.23 E37.96758
G1 X199.711 Y196.842 E37.98904
G1 X199.433 Y197.423 E38.01047
G1 X199.085 Y197.966 E38.03192
G1 X198.672 Y198.461 E38.05336
G1 X198.201 Y198.901 E38.0748
G1 X197.679 Y199.28 E38.09625
G1 X197.115 Y199.591 E38.11767
G1 X196.516 Y199.83 E38.13912
G1 X195.893 Y199.994 E38.16055
G1 X195.037 Y200.089 E38.1892
G1 X194.57 Y200.1 E38.20473
G1 X175.733 Y200.099 E38.83125
G1 X175.03 Y200.089 E38.85464
G1 X174.387 Y200.04 E38.87609
G1 X173.755 Y199.912 E38.89753
G1 X173.144 Y199.707 E38.91897
G1 X172.563 Y199.427 E38.94042
G1 X171.77 Y198.881 E38.97244
G1 X170.602 Y197.905 E39.02307
G1 X168.495 Y196.203 E39.11315
G1 X166.386 Y194.596 E39.20134
G1 X164.198 Y193.024 E39.29095
G1 X161.987 Y191.529 E39.37972
G1 X159.701 Y190.076 E39.46981
G1 X157.433 Y188.724 E39.55763
G1 X155.049 Y187.391 E39.64848
G1 X152.692 Y186.159 E39.73694
G1 X150.301 Y184.995 E39.82539
